brandFactory_export/2.Regular/Lengua _2Regular.svg

<?xml version="1.0" encoding="UTF-8"?>
<svg width="24px" height="24px" viewBox="0 0 24 24" version="1.1" xmlns="http://www.w3.org/2000/svg" xmlns:xlink="http://www.w3.org/1999/xlink">
    <title>2.Regular/Lengua _2Regular</title>
    <g id="Symbols" stroke="none" stroke-width="1" fill="none" fill-rule="evenodd">
        <g id="2.Regular/Lengua-_2Regular" fill="#5CB615" fill-rule="nonzero">
            <path d="M18.3058824,9.88235294 C18.3058824,17.6336134 16.6722689,20.2521008 11.8285714,20.2521008 C6.98487395,20.2521008 5.3512605,17.6336134 5.3512605,9.88235294 C5.3512605,8.89411765 5.37815126,8.02016807 5.43193277,7.22016807 C7.05882353,7.82857143 8.93781513,8.16806723 11.0655462,8.23193277 L11.112605,16.6991597 C11.1159664,17.0991597 11.4453782,17.4218487 11.8521008,17.4218487 L11.8554622,17.4218487 C12.2655462,17.4184874 12.594958,17.092437 12.5915966,16.692437 L12.5445378,8.23529412 C14.692437,8.17142857 16.5848739,7.83193277 18.2218487,7.21344538 C18.2789916,8.01680672 18.3058824,8.89411765 18.3058824,9.88235294 M23.2907563,2.14789916 C22.9478992,1.92605042 22.487395,2.02016807 22.2655462,2.35294118 C20.2823529,5.30756303 16.7663866,6.80672269 11.8184874,6.80672269 C6.86386555,6.80672269 3.34453782,5.30420168 1.36134454,2.34285714 C1.13613445,2.00672269 0.678991597,1.91596639 0.336134454,2.13445378 C-0.00672268908,2.35294118 -0.100840336,2.80672269 0.124369748,3.1394958 C1.10588235,4.60168067 2.41344538,5.73445378 4,6.57142857 C3.91596639,7.54957983 3.87226891,8.63193277 3.87226891,9.87563025 C3.87226891,16.9714286 5.22689076,21.697479 11.8319328,21.697479 C18.4369748,21.697479 19.7882353,16.9714286 19.7882353,9.87563025 C19.7882353,8.65882353 19.7478992,7.6 19.6672269,6.63193277 C19.6638655,6.60840336 19.6537815,6.58823529 19.6470588,6.56470588 C21.2235294,5.73109244 22.5243697,4.60168067 23.502521,3.14957983 C23.7277311,2.82016807 23.6302521,2.3697479 23.2907563,2.14789916" id="Lengua-_2Regular"></path>
        </g>
    </g>
</svg>

<svg width="24" height="24" viewBox="0 0 24 24" xmlns="http://www.w3.org/2000/svg"><path d="M18.306 9.882c0 7.752-1.634 10.37-6.477 10.37-4.844 0-6.478-2.618-6.478-10.37 0-.988.027-1.862.08-2.662 1.628.609 3.507.948 5.635 1.012l.047 8.467c.003.4.332.723.74.723h.002c.41-.004.74-.33.737-.73l-.047-8.457c2.147-.064 4.04-.403 5.677-1.022.057.804.084 1.681.084 2.67m4.985-7.735a.748.748 0 00-1.025.205c-1.984 2.955-5.5 4.454-10.448 4.454-4.954 0-8.473-1.503-10.457-4.464a.75.75 0 00-1.025-.209.716.716 0 00-.212 1.005C1.106 4.602 2.414 5.734 4 6.571a38.56 38.56 0 00-.128 3.305c0 7.095 1.355 11.821 7.96 11.821s7.956-4.726 7.956-11.821c0-1.217-.04-2.276-.12-3.244-.004-.024-.014-.044-.02-.067 1.576-.834 2.876-1.963 3.855-3.415a.716.716 0 00-.212-1.002" fill="#5CB615" fill-rule="nonzero"/></svg>
